svg/u1f687.svg

<svg viewBox="0 0 128 128" xmlns="http://www.w3.org/2000/svg">
  <g>
    <circle cx="64" cy="64" r="60" fill="#455A64"/>
    <path d="M34.38,68.01c17.47-10.42,44.99-8.28,59.02-1.12c6.49,3.31,9.66,6.89,17.72,11.16c6.84,3.63,7.81,0.7,8.23-0.7 c1.39-4.9,1.13-8.01,1.13-13.36C120.49,32.8,95.2,5.77,64,5.77S7.51,32.8,7.51,64c0,4.31,0,5.84,0.91,9.87 C11.08,82.8,25.73,73.17,34.38,68.01z"/>
    <path d="M104.05,108.56L90.38,92.33l-8.33-0.47l11.3,24.47c0,0,1.49-0.93,5.44-3.49 C102.75,110.29,104.05,108.56,104.05,108.56z" fill="#82AEC0"/>
    <path d="M84.75,90.19l14.93,22.05c0,0-2.63,1.91-3.47,2.37c-0.84,0.47-2.88,1.74-2.88,1.74L82.05,91.87 L84.75,90.19z" fill="#263238"/>
    <path d="M23.96,108.56l13.67-16.23l8.33-0.47l-11.3,24.47c0,0-1.49-0.93-5.44-3.49 C25.26,110.29,23.96,108.56,23.96,108.56z" fill="#82AEC0"/>
    <path d="M43.26,90.19l-14.93,22.05c0,0,2.63,1.91,3.47,2.37c0.84,0.47,2.88,1.74,2.88,1.74l11.28-24.49 L43.26,90.19z" fill="#263238"/>
    <g>
      <path d="M32.18,92.59c0.06,2.25,0.28,4.7,0.79,7.07c0.16,0.75,0.59,1.53,1.31,1.53h1.95c0.73,0,1.46-0.38,2.66,2.12 c0.33,0.7,0.77,1.13,1.21,1.35l0,0.03c16.44,5.8,38.88,3.26,47.05,0.1c0.67,0.24,1.74-0.08,2.4-1.48c1.2-2.51,1.94-2.12,2.66-2.12 h1.95c0.72,0,1.15-0.78,1.31-1.53c0.51-2.37,0.73-4.83,0.79-7.07H32.18z"/>
      <path d="M97.62,93.2H30.38c-1.21,0-2.19-0.98-2.19-2.19v-10.8h71.6v10.8C99.8,92.22,98.82,93.2,97.62,93.2z " fill="#82AEC0"/>
      <polygon points="99.82,82.25 28.19,82.25 28.19,85.25 53.87,85.25 53.87,90.41 73.44,90.41 73.44,85.25 99.82,85.25 " fill="#37474F"/>
      <path d="M99.16,82.56H28.84c-0.85,0-1.55-0.66-1.55-1.48V42.93c0-14.12,5.39-26.96,31.93-26.96h10.29 c23.32,0,31.19,12.84,31.19,26.96v38.15C100.7,81.9,100.01,82.56,99.16,82.56z" fill="#F44336"/>
      <path d="M27.32,41.42c0,5.17,4.75,6.29,4.75,6.29l18.34-0.05l8.55-0.01l1.93,0l3.78-0.01l8.17-0.02 l23.15-0.05c0,0,4.69-1.49,4.69-6.15s-1.34-25.75-31.16-25.46H59.22C27.33,15.56,27.32,36.25,27.32,41.42z" fill="#82AEC0"/>
      <path d="M71.06,79.5H56.94c-1.9,0-3.45-1.54-3.45-3.45 V38.97c0-1.9,1.54-3.45,3.45-3.45h14.13c1.9,0,3.45,1.54,3.45,3.45v37.08C74.51,77.96,72.97,79.5,71.06,79.5z" fill="#F44336" stroke="#9B1313" stroke-width="2" stroke-miterlimit="10"/>
      <path d="M48.84,23.15c1.31,0,1.81,0.77,1.81,1.73V62.1c0,0.96-0.81,1.73-1.81,1.73H33.97 c-1,0-1.81-0.77-1.81-1.73V43.01C32.16,25.22,45.65,23.15,48.84,23.15z" fill="#BAE2FD"/>
      <path d="M69.09,38.56H58.91c-1.47,0-2.66,1.19-2.66,2.66v20.06c0,1.47,1.19,2.66,2.66,2.66h10.17 c1.47,0,2.66-1.19,2.66-2.66V41.22C71.74,39.75,70.55,38.56,69.09,38.56z" fill="#BAE2FD"/>
      <path d="M48.84,23.15c1.31,0,1.81,0.77,1.81,1.73V62.1c0,0.96-0.81,1.73-1.81,1.73H33.97 c-1,0-1.81-0.77-1.81-1.73V43.01C32.16,25.22,45.65,23.15,48.84,23.15z" fill="#37474F"/>
      <path d="M69.09,38.56H58.91c-1.47,0-2.66,1.19-2.66,2.66v20.06c0,1.47,1.19,2.66,2.66,2.66h10.17 c1.47,0,2.66-1.19,2.66-2.66V41.22C71.74,39.75,70.55,38.56,69.09,38.56z" fill="#37474F"/>
      <path d="M71.65,31.17h-15.3c-1.54,0-2.79-1.25-2.79-2.79v-2.89c0-1.54,1.25-2.79,2.79-2.79h15.3c1.54,0,2.79,1.25,2.79,2.79v2.89 C74.44,29.93,73.19,31.17,71.65,31.17z"/>
      <rect height="3.98" fill="#FFEB3B" width="3" x="55.93" y="24.95"/>
      <rect height="3.98" fill="#FFEB3B" width="3" x="69.07" y="24.95"/>
      <rect height="3.98" fill="#FFEB3B" width="1.98" x="60.53" y="24.95"/>
      <rect height="3.98" fill="#FFEB3B" width="1.39" x="66.21" y="24.95"/>
      <path d="M47.77,26.11c1.08,0,1.49,0.64,1.49,1.43v32.19c0,0.79-0.67,1.43-1.49,1.43h-11.9 c-0.82,0-1.49-0.64-1.49-1.43V43.16C34.38,28.5,45.14,26.11,47.77,26.11z" fill="#BAE2FD"/>
      <path d="M68.29,40.93h-8.3c-1.1,0-2,0.9-2,2v16.58c0,1.1,0.9,2,2,2h8.3c1.1,0,2-0.9,2-2V42.93 C70.29,41.83,69.39,40.93,68.29,40.93z" fill="#BAE2FD"/>
      <circle cx="36.7" cy="72.75" r="4.74" fill="#FFFF8D"/>
      <circle cx="91.33" cy="72.75" r="4.74" fill="#FFFF8D"/>
      <path d="M79.78,23.15c-1.31,0-1.81,0.77-1.81,1.73V62.1c0,0.96,0.81,1.73,1.81,1.73h14.87 c1,0,1.81-0.77,1.81-1.73V43.01C96.47,25.22,82.98,23.15,79.78,23.15z" fill="#37474F"/>
      <path d="M80.86,26.11c-1.08,0-1.49,0.64-1.49,1.43v32.19c0,0.79,0.67,1.43,1.49,1.43h11.9 c0.82,0,1.49-0.64,1.49-1.43V43.16C94.25,28.5,83.49,26.11,80.86,26.11z" fill="#BAE2FD"/>
      <path d="M34.43,41.41l14.83,14.83v-7.06L35.6,35.52c0,0-0.51,1.23-0.85,2.9 C34.48,39.7,34.43,41.41,34.43,41.41z" fill="#FFFFFF"/>
      <polygon points="79.36,41.36 94.25,56.24 94.25,49.18 79.37,34.3 " fill="#FFFFFF"/>
      <path d="M57.99,42.79l12.3,12.3v-7.06l-7.38-7.1h-3.07C58.82,40.93,57.99,41.76,57.99,42.79L57.99,42.79z" fill="#FFFFFF"/>
    </g>
    <path d="M45.39,102.9l1.34-2.46c0.3-0.55,0.88-0.9,1.51-0.9h30.03c0.64,0,1.23,0.36,1.52,0.92l1.31,2.51 c0.29,0.56-0.12,1.24-0.75,1.24l-34.22-0.06C45.49,104.15,45.08,103.46,45.39,102.9z" fill="#424242"/>
    <path d="M87.09,116.21l-46.14-0.51c-0.92-0.01-1.5-0.86-1.08-1.56l1.73-2.87c0.37-0.61,1.09-0.99,1.88-0.99 h41.2c0.85,0,1.62,0.44,1.95,1.12l1.61,3.32C88.59,115.44,87.98,116.22,87.09,116.21z" fill="#82AEC0"/>
  </g>
</svg>

<svg viewBox="0 0 128 128" xmlns="http://www.w3.org/2000/svg">
  <defs/>
  <path d="M124,64 A60 60 0 1 1 4,64 A60 60 0 1 1 124,64 Z" fill="#455A64"/>
  <path d="M34.38,68.01 C51.85,57.59 79.37,59.73 93.4,66.89 C99.89,70.2 103.06,73.78 111.12,78.05 C117.96,81.68 118.93,78.75 119.35,77.35 C120.74,72.45 120.48,69.34 120.48,63.99 C120.49,32.8 95.2,5.77 64,5.77 C32.8,5.77 7.51,32.8 7.51,64 C7.51,68.31 7.51,69.84 8.42,73.87 C11.08,82.8 25.73,73.17 34.38,68.01 Z"/>
  <path d="M104.05,108.56 L90.38,92.33 L82.05,91.86 L93.35,116.33 C93.35,116.33 94.84,115.4 98.79,112.84 C102.75,110.29 104.05,108.56 104.05,108.56 Z" fill="#82AEC0"/>
  <path d="M84.75,90.19 L99.68,112.24 C99.68,112.24 97.05,114.15 96.21,114.61 C95.37,115.08 93.33,116.35 93.33,116.35 L82.05,91.87 L84.75,90.19 Z" fill="#263238"/>
  <path d="M23.96,108.56 L37.63,92.33 L45.96,91.86 L34.66,116.33 C34.66,116.33 33.17,115.4 29.22,112.84 C25.26,110.29 23.96,108.56 23.96,108.56 Z" fill="#82AEC0"/>
  <path d="M43.26,90.19 L28.33,112.24 C28.33,112.24 30.96,114.15 31.8,114.61 C32.64,115.08 34.68,116.35 34.68,116.35 L45.96,91.86 L43.26,90.19 Z" fill="#263238"/>
  <path d="M32.18,92.59 C32.24,94.84 32.46,97.29 32.97,99.66 C33.13,100.41 33.56,101.19 34.28,101.19 L36.23,101.19 C36.96,101.19 37.69,100.81 38.89,103.31 C39.22,104.01 39.66,104.44 40.1,104.66 L40.1,104.69 C56.54,110.49 78.98,107.95 87.15,104.79 C87.82,105.03 88.89,104.71 89.55,103.31 C90.75,100.8 91.49,101.19 92.21,101.19 L94.16,101.19 C94.88,101.19 95.31,100.41 95.47,99.66 C95.98,97.29 96.2,94.83 96.26,92.59 L32.18,92.59 Z"/>
  <path d="M97.62,93.2 L30.38,93.2 C29.17,93.2 28.19,92.22 28.19,91.01 L28.19,80.21 L99.79,80.21 L99.79,91.01 C99.8,92.22 98.82,93.2 97.62,93.2 Z" fill="#82AEC0"/>
  <path d="M99.82,82.25 L28.19,82.25 L28.19,85.25 L53.87,85.25 L53.87,90.41 L73.44,90.41 L73.44,85.25 L99.82,85.25 Z" fill="#37474F"/>
  <path d="M99.16,82.56 L28.84,82.56 C27.99,82.56 27.29,81.9 27.29,81.08 L27.29,42.93 C27.29,28.81 32.68,15.97 59.22,15.97 L69.51,15.97 C92.83,15.97 100.7,28.81 100.7,42.93 L100.7,81.08 C100.7,81.9 100.01,82.56 99.16,82.56 Z" fill="#F44336"/>
  <path d="M27.32,41.42 C27.32,46.59 32.07,47.71 32.07,47.71 L50.41,47.66 L58.96,47.65 L60.89,47.65 L64.67,47.64 L72.84,47.62 L95.99,47.57 C95.99,47.57 100.68,46.08 100.68,41.42 C100.68,36.76 99.34,15.67 69.52,15.96 L59.22,15.96 C27.33,15.56 27.32,36.25 27.32,41.42 Z" fill="#82AEC0"/>
  <path d="M71.06,79.5 L56.94,79.5 C55.04,79.5 53.49,77.96 53.49,76.05 L53.49,38.97 C53.49,37.07 55.03,35.52 56.94,35.52 L71.07,35.52 C72.97,35.52 74.52,37.06 74.52,38.97 L74.52,76.05 C74.51,77.96 72.97,79.5 71.06,79.5 Z" fill="#F44336"/>
  <path d="M71.06,80.5 L56.94,80.5 Q55.1,80.5 53.796,79.199 Q52.49,77.896 52.49,76.05 L52.49,38.97 Q52.49,37.13 53.791,35.826 Q55.094,34.52 56.94,34.52 L71.07,34.52 Q72.91,34.52 74.214,35.821 Q75.52,37.124 75.52,38.97 L75.52,76.05 Q75.51,77.9 74.209,79.199 Q72.905,80.5 71.06,80.5 Z M71.06,78.5 Q73.507,78.5 73.52,76.05 L73.52,38.97 Q73.52,36.52 71.07,36.52 L56.94,36.52 Q54.49,36.52 54.49,38.97 L54.49,76.05 Q54.49,77.066 55.209,77.783 Q55.927,78.5 56.94,78.5 Z" fill="#9B1313"/>
  <path d="M48.84,23.15 C50.15,23.15 50.65,23.92 50.65,24.88 L50.65,62.1 C50.65,63.06 49.84,63.83 48.84,63.83 L33.97,63.83 C32.97,63.83 32.16,63.06 32.16,62.1 L32.16,43.01 C32.16,25.22 45.65,23.15 48.84,23.15 Z" fill="#BAE2FD"/>
  <path d="M69.09,38.56 L58.91,38.56 C57.44,38.56 56.25,39.75 56.25,41.22 L56.25,61.28 C56.25,62.75 57.44,63.94 58.91,63.94 L69.08,63.94 C70.55,63.94 71.74,62.75 71.74,61.28 L71.74,41.22 C71.74,39.75 70.55,38.56 69.09,38.56 Z" fill="#BAE2FD"/>
  <path d="M48.84,23.15 C50.15,23.15 50.65,23.92 50.65,24.88 L50.65,62.1 C50.65,63.06 49.84,63.83 48.84,63.83 L33.97,63.83 C32.97,63.83 32.16,63.06 32.16,62.1 L32.16,43.01 C32.16,25.22 45.65,23.15 48.84,23.15 Z" fill="#37474F"/>
  <path d="M69.09,38.56 L58.91,38.56 C57.44,38.56 56.25,39.75 56.25,41.22 L56.25,61.28 C56.25,62.75 57.44,63.94 58.91,63.94 L69.08,63.94 C70.55,63.94 71.74,62.75 71.74,61.28 L71.74,41.22 C71.74,39.75 70.55,38.56 69.09,38.56 Z" fill="#37474F"/>
  <path d="M71.65,31.17 L56.35,31.17 C54.81,31.17 53.56,29.92 53.56,28.38 L53.56,25.49 C53.56,23.95 54.81,22.7 56.35,22.7 L71.65,22.7 C73.19,22.7 74.44,23.95 74.44,25.49 L74.44,28.38 C74.44,29.93 73.19,31.17 71.65,31.17 Z"/>
  <path d="M55.93,24.95 L58.93,24.95 L58.93,28.93 L55.93,28.93 L55.93,24.95 Z" fill="#FFEB3B"/>
  <path d="M69.07,24.95 L72.07,24.95 L72.07,28.93 L69.07,28.93 L69.07,24.95 Z" fill="#FFEB3B"/>
  <path d="M60.53,24.95 L62.51,24.95 L62.51,28.93 L60.53,28.93 L60.53,24.95 Z" fill="#FFEB3B"/>
  <path d="M66.21,24.95 L67.6,24.95 L67.6,28.93 L66.21,28.93 L66.21,24.95 Z" fill="#FFEB3B"/>
  <path d="M47.77,26.11 C48.85,26.11 49.26,26.75 49.26,27.54 L49.26,59.73 C49.26,60.52 48.59,61.16 47.77,61.16 L35.87,61.16 C35.05,61.16 34.38,60.52 34.38,59.73 L34.38,43.16 C34.38,28.5 45.14,26.11 47.77,26.11 Z" fill="#BAE2FD"/>
  <path d="M68.29,40.93 L59.99,40.93 C58.89,40.93 57.99,41.83 57.99,42.93 L57.99,59.51 C57.99,60.61 58.89,61.51 59.99,61.51 L68.29,61.51 C69.39,61.51 70.29,60.61 70.29,59.51 L70.29,42.93 C70.29,41.83 69.39,40.93 68.29,40.93 Z" fill="#BAE2FD"/>
  <path d="M41.44,72.75 A4.74 4.74 0 1 1 31.96,72.75 A4.74 4.74 0 1 1 41.44,72.75 Z" fill="#FFFF8D"/>
  <path d="M96.07,72.75 A4.74 4.74 0 1 1 86.59,72.75 A4.74 4.74 0 1 1 96.07,72.75 Z" fill="#FFFF8D"/>
  <path d="M79.78,23.15 C78.47,23.15 77.97,23.92 77.97,24.88 L77.97,62.1 C77.97,63.06 78.78,63.83 79.78,63.83 L94.65,63.83 C95.65,63.83 96.46,63.06 96.46,62.1 L96.46,43.01 C96.47,25.22 82.98,23.15 79.78,23.15 Z" fill="#37474F"/>
  <path d="M80.86,26.11 C79.78,26.11 79.37,26.75 79.37,27.54 L79.37,59.73 C79.37,60.52 80.04,61.16 80.86,61.16 L92.76,61.16 C93.58,61.16 94.25,60.52 94.25,59.73 L94.25,43.16 C94.25,28.5 83.49,26.11 80.86,26.11 Z" fill="#BAE2FD"/>
  <path d="M34.43,41.41 L49.26,56.24 L49.26,49.18 L35.6,35.52 C35.6,35.52 35.09,36.75 34.75,38.42 C34.48,39.7 34.43,41.41 34.43,41.41 Z" fill="#FFFFFF"/>
  <path d="M79.36,41.36 L94.25,56.24 L94.25,49.18 L79.37,34.3 Z" fill="#FFFFFF"/>
  <path d="M57.99,42.79 L70.29,55.09 L70.29,48.03 L62.91,40.93 L59.84,40.93 C58.82,40.93 57.99,41.76 57.99,42.79 L57.99,42.79 Z" fill="#FFFFFF"/>
  <path d="M45.39,102.9 L46.73,100.44 C47.03,99.89 47.61,99.54 48.24,99.54 L78.27,99.54 C78.91,99.54 79.5,99.9 79.79,100.46 L81.1,102.97 C81.39,103.53 80.98,104.21 80.35,104.21 L46.13,104.15 C45.49,104.15 45.08,103.46 45.39,102.9 Z" fill="#424242"/>
  <path d="M87.09,116.21 L40.95,115.7 C40.03,115.69 39.45,114.84 39.87,114.14 L41.6,111.27 C41.97,110.66 42.69,110.28 43.48,110.28 L84.68,110.28 C85.53,110.28 86.3,110.72 86.63,111.4 L88.24,114.72 C88.59,115.44 87.98,116.22 87.09,116.21 Z" fill="#82AEC0"/>
</svg>
